public/img/illustrations/icons/icon-check.svg

<svg width="48" height="48" viewBox="0 0 48 48" fill="none" xmlns="http://www.w3.org/2000/svg">
<rect x="0.75" y="0.75" width="46.5" height="46.5" rx="5.25" fill="#A7F3D0" stroke="black" stroke-width="1.5"/>
<path d="M13.6982 24.5568C13.3028 24.1712 12.6697 24.1792 12.2841 24.5746C11.8985 24.9699 11.9064 25.6031 12.3018 25.9887L13.6982 24.5568ZM21.9492 34L21.251 34.7159C21.4651 34.9248 21.7615 35.0268 22.0588 34.994C22.3561 34.9612 22.6232 34.797 22.7866 34.5465L21.9492 34ZM35.8375 14.5465C36.1393 14.084 36.009 13.4643 35.5465 13.1625C35.084 12.8607 34.4643 12.991 34.1625 13.4535L35.8375 14.5465ZM12.3018 25.9887L21.251 34.7159L22.6473 33.2841L13.6982 24.5568L12.3018 25.9887ZM22.7866 34.5465L35.8375 14.5465L34.1625 13.4535L21.1117 33.4535L22.7866 34.5465Z" fill="black"/>
</svg>

<svg xmlns="http://www.w3.org/2000/svg" width="48" height="48" fill="none" xmlns:v="https://vecta.io/nano"><rect x=".75" y=".75" width="46.5" height="46.5" rx="5.25" fill="#a7f3d0" stroke="#000" stroke-width="1.5"/><path d="M13.698 24.557a1 1 0 1 0-1.396 1.432l1.396-1.432zM21.949 34l-.698.716a1 1 0 0 0 1.536-.169L21.949 34zm13.888-19.453a1 1 0 0 0-1.675-1.093l1.675 1.093zM12.302 25.989l8.949 8.727 1.396-1.432-8.949-8.727-1.396 1.432zm10.485 8.558l13.051-20-1.675-1.093-13.051 20 1.675 1.093z" fill="#000"/></svg>
